X:1
T:Title
%%score { ( 1 3 ) | 2 }
L:1/8
M:6/8
K:F
V:1 treble nm="Grand Piano"
V:3 treble 
V:2 bass 
V:1
 z3 z2[Q:1/4=75] A | AGA [Ec][EA][EG] | FGA C2 C | CFA c2 [Fd] | [EG]3 A2 A | AGA [Ec][EA][EG] | %6
 FGA C2 C | CFA c2 [Fd] | [B,EG]3 [F,A,CF]3 | [G,CE][G,DF][CEG] [A,EA]2 [A,EA] | %10
 [G,CE][G,DF][CEG] [A,EA]3 | [A,DF][A,EG][A,FA] [F=B]2 [FB] | z3 [Ec]3 | dcA F2 F | %14
[M:13/16] [_Ec][DB][DG]D-<D^C3/2 | CF[FA][Fc]-<[Fc][Fd]3/2 |[M:3/4] [EG]3 .[A,CF]3 |] %17
V:2
 z3 z2 [F,CF] | [F,CF][F,B,F][F,CF] [C,B,][C,C][C,B,] | [F,A,C][F,B,E][F,CF] [G,B,]2 [E,B,] | %3
 [F,A,][F,A,C][F,CF] [F,A,F]2 [B,,G,] | [C,C]3 [F,CF]2 [F,CF] | %5
 [F,CF][F,B,F][F,CF] [C,B,][C,C][C,B,] | [F,A,C][F,B,E][F,CF] [G,B,]2 [E,B,] | %7
 [F,A,][F,A,C][F,CF] [F,A,F]2 [B,,G,] | C,3 F,,3 | C,C,C, C,2 C, | C,C,C, C,3 | %11
 C,C,C, [D,G,]2 [D,G,] | [G,=B,F][G,CF][G,DF][K:bass] .[C,C]3 | %13
 [F,A,_E][F,A,E][F,CE] [F,A,E]2 [F,E] | %14
[M:13/16] [B,,^F,][B,,G,][B,,B,][B,,G,B,]-<[B,,G,B,][=B,,=F,_A,]3/2 | %15
 [C,F,A,][C,A,C][C,C][C,A,]-<[C,A,][C,B,]3/2 |[M:3/4] [C,B,]3 .[F,,F,]3 |] %17
V:3
 x6 | x6 | x6 | x6 | x6 | x6 | x6 | x6 | x6 | x6 | x6 | x6 | GA=B z2 B, | x6 |[M:13/16] x13/2 | %15
 x13/2 |[M:3/4] x6 |] %17

